swiss/communes/0089.svg

<?xml version="1.0" encoding="UTF-8" standalone="no"?>
<!-- Created with Inkscape (http://www.inkscape.org/) -->
<svg
   xmlns:svg="http://www.w3.org/2000/svg"
   xmlns="http://www.w3.org/2000/svg"
   version="1.0"
   width="223.67139"
   height="261.99625"
   id="svg2780">
  <defs
     id="defs2782" />
  <g
     transform="translate(-14.864166,-811.27655)"
     id="layer1">
    <path
       d="M 15.864166,812.27655 L 19.894551,981.57644 C 22.773389,1102.5049 230.62631,1102.5049 233.50516,981.57644 L 237.53555,812.27655 L 15.864166,812.27655 z"
       id="path3282"
       style="fill:#2f73c9;fill-opacity:1;fill-rule:evenodd;stroke:#000000;stroke-width:2;stroke-linecap:butt;stroke-miterlimit:4;stroke-dashoffset:0;stroke-opacity:1" />
    <path
       d="M 46.340925,961.74265 C 44.397695,906.92541 79.968781,879.49972 86.521225,881.772 C 92.290069,883.77254 96.149456,879.56647 99.411433,876.21889 C 103.40886,872.11655 113.40121,879.39122 119.84997,885.42722 C 122.65809,888.0556 127.82509,888.61722 127.80886,883.82432 C 127.78246,875.93364 131.48961,872.79023 134.64049,875.34488 C 136.33781,876.721 138.02351,880.04327 140.68713,877.10189 C 142.21165,878.6806 147.40401,880.24272 148.76585,878.24003 C 150.06572,876.32845 153.64547,876.31226 155.15291,878.48944 C 157.48288,881.85462 162.06519,885.61499 166.99795,881.772 C 196.02757,905.86263 202.07628,927.68675 202.30088,965.27467 C 255.78674,790.18462 -4.684743,785.48077 46.340925,961.74265 z"
       id="path2561"
       style="fill:#ffff08;fill-opacity:1;fill-rule:evenodd;stroke:#000000;stroke-width:0.99999994px;stroke-linecap:butt;stroke-linejoin:round;stroke-opacity:1" />
    <path
       d="M 97.282292,862.41878 C 93.745366,864.70304 92.023354,870.44779 93.140531,876.47117"
       id="path2392"
       style="fill:none;fill-opacity:0.75;fill-rule:evenodd;stroke:#000000;stroke-width:0.99921256;stroke-linecap:round;stroke-linejoin:miter;stroke-miterlimit:4;stroke-dasharray:none;stroke-opacity:1" />
    <path
       d="M 111.35311,866.17721 C 111.42864,864.2771 109.35892,859.06608 108.37947,857.47084 C 106.87946,860.02971 105.31746,865.27723 104.78774,870.09656 L 101.2291,868.38074"
       id="path2394"
       style="fill:none;fill-opacity:0.75;fill-rule:evenodd;stroke:#000000;stroke-width:0.99921256;stroke-linecap:round;stroke-linejoin:round;stroke-miterlimit:4;stroke-dasharray:none;stroke-opacity:1" />
    <path
       d="M 120.23379,869.61691 C 134.27791,864.51322 124.05003,875.52723 125.341,878.82458"
       id="path2396"
       style="fill:none;fill-opacity:0.75;fill-rule:evenodd;stroke:#000000;stroke-width:0.99999994px;stroke-linecap:round;stroke-linejoin:miter;stroke-opacity:1" />
    <path
       d="M 141.03552,876.93246 C 141.03552,874.61529 141.40447,871.01497 141.73228,866.31494 C 144.28381,868.11505 145.88524,874.28917 145.92284,878.65144"
       id="path2398"
       style="fill:none;fill-opacity:0.75;fill-rule:evenodd;stroke:#000000;stroke-width:0.99999994px;stroke-linecap:butt;stroke-linejoin:miter;stroke-opacity:1" />
    <path
       d="M 143.70715,865.39193 C 142.08079,865.37844 140.33695,865.87535 138.49164,866.81316"
       id="path2400"
       style="opacity:1;color:#000000;fill:none;fill-opacity:0.75;fill-rule:evenodd;stroke:#000000;stroke-width:0.99999994px;stroke-linecap:round;stroke-linejoin:miter;marker:none;marker-start:none;marker-mid:none;marker-end:none;stroke-miterlimit:4;stroke-dasharray:none;stroke-dashoffset:0;stroke-opacity:1;visibility:visible;display:inline;overflow:visible;enable-background:accumulate" />
    <path
       d="M 103.74309,47.722897 A 2.8094954,1.3051536 0 1 1 98.124098,47.722897 A 2.8094954,1.3051536 0 1 1 103.74309,47.722897 z"
       transform="matrix(0.9212701,-0.1485211,0.1367313,1.0007079,8.9240345,832.66903)"
       id="path2402"
       style="opacity:1;color:#000000;fill:none;fill-opacity:1;fill-rule:evenodd;stroke:#000000;stroke-width:1.0302001pt;stroke-linecap:butt;stroke-linejoin:round;marker:none;marker-start:none;marker-mid:none;marker-end:none;stroke-miterlimit:4;stroke-dasharray:none;stroke-dashoffset:0;stroke-opacity:1;visibility:visible;display:inline;overflow:visible;enable-background:accumulate" />
    <path
       d="M 98.519303,872.12694 C 101.68762,871.18691 100.169,863.88621 108.37947,857.47084"
       id="path3870"
       style="opacity:1;color:#000000;fill:none;fill-opacity:0.75;fill-rule:evenodd;stroke:#000000;stroke-width:0.99921256;stroke-linecap:round;stroke-linejoin:miter;marker:none;marker-start:none;marker-mid:none;marker-end:none;stroke-miterlimit:4;stroke-dasharray:none;stroke-dashoffset:0;stroke-opacity:1;visibility:visible;display:inline;overflow:visible;enable-background:accumulate" />
    <path
       d="M 119.20118,95.786575 L 135.82534,146.15307 L 188.86386,146.39948 L 146.09963,177.77409 L 162.25508,228.29288 L 119.20118,197.31696 L 76.147271,228.29287 L 92.302726,177.77409 L 49.538496,146.39948 L 102.57702,146.15306 L 119.20118,95.786575 z"
       transform="matrix(1.0166074,0,0,1.016615,5.5190562,798.4644)"
       id="path3475"
       style="fill:#ffff08;fill-opacity:1;fill-rule:evenodd;stroke:#000000;stroke-width:0.98288572;stroke-linecap:butt;stroke-linejoin:miter;stroke-miterlimit:4;stroke-dasharray:none;stroke-opacity:1" />
  </g>
</svg>

<svg xmlns="http://www.w3.org/2000/svg" version="1.0" width="223.671" height="261.996"><path d="m15.864 812.277 4.03 169.3c2.88 120.928 210.732 120.928 213.611 0l4.03-169.3H15.866z" style="fill:#2f73c9;fill-opacity:1;fill-rule:evenodd;stroke:#000;stroke-width:2;stroke-linecap:butt;stroke-miterlimit:4;stroke-dashoffset:0;stroke-opacity:1" transform="translate(-14.864 -811.277)"/><path d="M46.34 961.743c-1.942-54.818 33.629-82.243 40.181-79.971 5.77 2 9.628-2.206 12.89-5.553 3.998-4.102 13.99 3.172 20.439 9.208 2.808 2.629 7.975 3.19 7.959-1.603-.027-7.89 3.68-11.034 6.831-8.48 1.698 1.377 3.384 4.7 6.047 1.758 1.525 1.579 6.717 3.14 8.079 1.138 1.3-1.912 4.88-1.928 6.387.25 2.33 3.365 6.912 7.125 11.845 3.282 29.03 24.09 35.078 45.915 35.303 83.503 53.486-175.09-206.986-179.794-155.96-3.532z" style="fill:#ffff08;fill-opacity:1;fill-rule:evenodd;stroke:#000;stroke-width:.99999994px;stroke-linecap:butt;stroke-linejoin:round;stroke-opacity:1" transform="translate(-14.864 -811.277)"/><path d="M97.282 862.419c-3.537 2.284-5.259 8.029-4.141 14.052" style="fill:none;fill-opacity:.75;fill-rule:evenodd;stroke:#000;stroke-width:.99921256;stroke-linecap:round;stroke-linejoin:miter;stroke-miterlimit:4;stroke-dasharray:none;stroke-opacity:1" transform="translate(-14.864 -811.277)"/><path d="M111.353 866.177c.076-1.9-1.994-7.11-2.974-8.706-1.5 2.559-3.062 7.806-3.591 12.626l-3.559-1.716" style="fill:none;fill-opacity:.75;fill-rule:evenodd;stroke:#000;stroke-width:.99921256;stroke-linecap:round;stroke-linejoin:round;stroke-miterlimit:4;stroke-dasharray:none;stroke-opacity:1" transform="translate(-14.864 -811.277)"/><path d="M120.234 869.617c14.044-5.104 3.816 5.91 5.107 9.208" style="fill:none;fill-opacity:.75;fill-rule:evenodd;stroke:#000;stroke-width:.99999994px;stroke-linecap:round;stroke-linejoin:miter;stroke-opacity:1" transform="translate(-14.864 -811.277)"/><path d="M141.036 876.932c0-2.317.368-5.917.696-10.617 2.552 1.8 4.153 7.974 4.19 12.336" style="fill:none;fill-opacity:.75;fill-rule:evenodd;stroke:#000;stroke-width:.99999994px;stroke-linecap:butt;stroke-linejoin:miter;stroke-opacity:1" transform="translate(-14.864 -811.277)"/><path d="M143.707 865.392c-1.626-.014-3.37.483-5.215 1.421" style="opacity:1;color:#000;fill:none;fill-opacity:.75;fill-rule:evenodd;stroke:#000;stroke-width:.99999994px;stroke-linecap:round;stroke-linejoin:miter;marker:none;marker-start:none;marker-mid:none;marker-end:none;stroke-miterlimit:4;stroke-dasharray:none;stroke-dashoffset:0;stroke-opacity:1;visibility:visible;display:inline;overflow:visible;enable-background:accumulate" transform="translate(-14.864 -811.277)"/><path d="M103.743 47.723a2.81 1.305 0 1 1-5.619 0 2.81 1.305 0 1 1 5.62 0z" transform="matrix(.92127 -.14852 .13673 1.0007 -5.94 21.392)" style="opacity:1;color:#000;fill:none;fill-opacity:1;fill-rule:evenodd;stroke:#000;stroke-width:1.0302001pt;stroke-linecap:butt;stroke-linejoin:round;marker:none;marker-start:none;marker-mid:none;marker-end:none;stroke-miterlimit:4;stroke-dasharray:none;stroke-dashoffset:0;stroke-opacity:1;visibility:visible;display:inline;overflow:visible;enable-background:accumulate"/><path d="M98.52 872.127c3.168-.94 1.649-8.24 9.86-14.656" style="opacity:1;color:#000;fill:none;fill-opacity:.75;fill-rule:evenodd;stroke:#000;stroke-width:.99921256;stroke-linecap:round;stroke-linejoin:miter;marker:none;marker-start:none;marker-mid:none;marker-end:none;stroke-miterlimit:4;stroke-dasharray:none;stroke-dashoffset:0;stroke-opacity:1;visibility:visible;display:inline;overflow:visible;enable-background:accumulate" transform="translate(-14.864 -811.277)"/><path d="m119.201 95.787 16.624 50.366 53.039.246-42.764 31.375 16.155 50.519-43.054-30.976-43.054 30.976 16.156-50.519L49.538 146.4l53.039-.246 16.624-50.366z" transform="matrix(1.0166 0 0 1.01662 -9.345 -12.812)" style="fill:#ffff08;fill-opacity:1;fill-rule:evenodd;stroke:#000;stroke-width:.98288572;stroke-linecap:butt;stroke-linejoin:miter;stroke-miterlimit:4;stroke-dasharray:none;stroke-opacity:1"/></svg>
